Newaita-dark/apps/22/blender.svg

<?xml version="1.0" encoding="UTF-8"?>
<svg xmlns="http://www.w3.org/2000/svg" xmlns:xlink="http://www.w3.org/1999/xlink" width="22pt" height="22pt" viewBox="0 0 22 22" version="1.1">
<defs>
<linearGradient id="linear0" gradientUnits="userSpaceOnUse" x1="254" y1="233.500015" x2="254" y2="254.666672" gradientTransform="matrix(0.0429729,0,0,0.0429729,0.227396,9.239163)">
<stop offset="0" style="stop-color:rgb(0%,0%,0%);stop-opacity:0.27451;"/>
<stop offset="1" style="stop-color:rgb(0%,0%,0%);stop-opacity:0;"/>
</linearGradient>
<radialGradient id="radial0" gradientUnits="userSpaceOnUse" cx="450.908936" cy="189.579361" fx="450.908936" fy="189.579361" r="21.166656" gradientTransform="matrix(0.000000119742,-0.0537161,-0.0966889,-0.0000000698078,31.519258,43.721794)">
<stop offset="0" style="stop-color:rgb(0%,0%,0%);stop-opacity:0.313725;"/>
<stop offset="0.222222" style="stop-color:rgb(0%,0%,0%);stop-opacity:0.27451;"/>
<stop offset="1" style="stop-color:rgb(0%,0%,0%);stop-opacity:0;"/>
</radialGradient>
<radialGradient id="radial1" gradientUnits="userSpaceOnUse" cx="450.908936" cy="189.579361" fx="450.908936" fy="189.579361" r="21.166656" gradientTransform="matrix(-0.000000119742,0.0537161,0.0966889,0.0000000698078,-6.05068,-5.175141)">
<stop offset="0" style="stop-color:rgb(0%,0%,0%);stop-opacity:0.313725;"/>
<stop offset="0.222222" style="stop-color:rgb(0%,0%,0%);stop-opacity:0.27451;"/>
<stop offset="1" style="stop-color:rgb(0%,0%,0%);stop-opacity:0;"/>
</radialGradient>
<radialGradient id="radial2" gradientUnits="userSpaceOnUse" cx="450.908936" cy="189.579361" fx="450.908936" fy="189.579361" r="21.166656" gradientTransform="matrix(-0.000000119742,-0.0537161,0.0966889,-0.0000000698078,-6.05068,43.721794)">
<stop offset="0" style="stop-color:rgb(0%,0%,0%);stop-opacity:0.313725;"/>
<stop offset="0.222222" style="stop-color:rgb(0%,0%,0%);stop-opacity:0.27451;"/>
<stop offset="1" style="stop-color:rgb(0%,0%,0%);stop-opacity:0;"/>
</radialGradient>
<radialGradient id="radial3" gradientUnits="userSpaceOnUse" cx="450.908936" cy="189.579361" fx="450.908936" fy="189.579361" r="21.166656" gradientTransform="matrix(0.000000119742,0.0537161,-0.0966889,0.0000000698078,31.519257,-5.175143)">
<stop offset="0" style="stop-color:rgb(0%,0%,0%);stop-opacity:0.313725;"/>
<stop offset="0.222222" style="stop-color:rgb(0%,0%,0%);stop-opacity:0.27451;"/>
<stop offset="1" style="stop-color:rgb(0%,0%,0%);stop-opacity:0;"/>
</radialGradient>
<linearGradient id="linear1" gradientUnits="userSpaceOnUse" x1="1040" y1="1695.118164" x2="1040" y2="175.118134" gradientTransform="matrix(0.0113699,0,0,0.0113699,0.909593,0)">
<stop offset="0" style="stop-color:rgb(100%,43.921569%,26.27451%);stop-opacity:1;"/>
<stop offset="1" style="stop-color:rgb(100%,54.117647%,39.607843%);stop-opacity:1;"/>
</linearGradient>
<linearGradient id="linear2" gradientUnits="userSpaceOnUse" x1="275.166656" y1="-9.916667" x2="275.166656" y2="180.583328" gradientTransform="matrix(1,0,0,1,21.166677,0)">
<stop offset="0" style="stop-color:rgb(74.117647%,74.117647%,74.117647%);stop-opacity:1;"/>
<stop offset="1" style="stop-color:rgb(93.333333%,93.333333%,93.333333%);stop-opacity:1;"/>
</linearGradient>
<linearGradient id="linear3" gradientUnits="userSpaceOnUse" x1="275.166656" y1="-9.916667" x2="275.166656" y2="180.583344" gradientTransform="matrix(0.0238738,0,0,0.0238738,6.165012,10.868948)">
<stop offset="0" style="stop-color:rgb(25.882353%,64.705882%,96.078431%);stop-opacity:1;"/>
<stop offset="1" style="stop-color:rgb(12.941176%,58.823529%,95.294118%);stop-opacity:1;"/>
</linearGradient>
</defs>
<g id="surface1">
<path style=" stroke:none;fill-rule:nonzero;fill:url(#linear0);" d="M 12.050781 18.933594 L 13.417969 18.933594 L 13.417969 20.183594 L 12.050781 20.183594 Z M 12.050781 18.933594 "/>
<path style=" stroke:none;fill-rule:nonzero;fill:url(#radial0);" d="M 13.417969 19.273438 L 15.234375 19.273438 L 15.234375 18.363281 L 13.417969 18.363281 Z M 13.417969 19.273438 "/>
<path style=" stroke:none;fill-rule:nonzero;fill:url(#radial1);" d="M 12.050781 19.273438 L 10.234375 19.273438 L 10.234375 20.183594 L 12.050781 20.183594 Z M 12.050781 19.273438 "/>
<path style=" stroke:none;fill-rule:nonzero;fill:url(#radial2);" d="M 12.050781 19.273438 L 10.234375 19.273438 L 10.234375 18.363281 L 12.050781 18.363281 Z M 12.050781 19.273438 "/>
<path style=" stroke:none;fill-rule:nonzero;fill:url(#radial3);" d="M 13.417969 19.273438 L 15.234375 19.273438 L 15.234375 20.183594 L 13.417969 20.183594 Z M 13.417969 19.273438 "/>
<path style=" stroke:none;fill-rule:nonzero;fill:url(#linear1);" d="M 12.109375 2.050781 C 11.851562 2.050781 11.59375 2.128906 11.367188 2.285156 L 11.304688 2.332031 C 10.703125 2.753906 10.566406 3.589844 11 4.210938 L 12.632812 6.539062 L 4.09375 6.539062 C 3.335938 6.539062 2.730469 7.128906 2.730469 7.863281 L 2.730469 7.941406 C 2.730469 8.675781 3.335938 9.269531 4.09375 9.269531 L 7.503906 9.269531 C 7.496094 9.277344 7.488281 9.289062 7.480469 9.300781 L 3.042969 14.589844 C 2.558594 15.167969 2.617188 16.011719 3.179688 16.484375 L 3.242188 16.535156 C 3.804688 17.007812 4.648438 16.921875 5.132812 16.34375 L 6.59375 14.601562 C 7.332031 17.300781 9.792969 19.273438 12.734375 19.273438 C 16.261719 19.273438 19.101562 16.433594 19.101562 12.90625 C 19.101562 11.1875 18.417969 10.0625 17.328125 8.488281 L 13.234375 2.644531 C 12.964844 2.257812 12.539062 2.050781 12.109375 2.050781 Z M 12.109375 2.050781 "/>
<path style="fill-rule:nonzero;fill:url(#linear2);stroke-width:3;stroke-linecap:square;stroke-linejoin:round;stroke:rgb(12.941177%,12.941177%,12.941177%);stroke-opacity:1;stroke-miterlimit:4;" d="M 296.335338 -9.928674 C 348.966675 -9.928674 391.598968 32.703618 391.598968 85.334956 C 391.598968 137.966293 348.966675 180.598586 296.335338 180.598586 C 243.704 180.598586 201.071708 137.966293 201.071708 85.334956 C 201.071708 32.703618 243.704 -9.928674 296.335338 -9.928674 Z M 296.335338 -9.928674 " transform="matrix(0.0429729,0,0,0.0429729,0,9.239163)"/>
<path style=" stroke:none;fill-rule:nonzero;fill:url(#linear3);" d="M 12.734375 10.632812 C 13.988281 10.632812 15.007812 11.648438 15.007812 12.90625 C 15.007812 14.160156 13.988281 15.179688 12.734375 15.179688 C 11.476562 15.179688 10.460938 14.160156 10.460938 12.90625 C 10.460938 11.648438 11.476562 10.632812 12.734375 10.632812 Z M 12.734375 10.632812 "/>
<path style=" stroke:none;fill-rule:nonzero;fill:rgb(100%,100%,100%);fill-opacity:0.392157;" d="M 12.109375 2.050781 C 11.851562 2.050781 11.59375 2.128906 11.367188 2.285156 L 11.304688 2.332031 C 10.898438 2.613281 10.707031 3.085938 10.753906 3.554688 C 10.792969 3.183594 10.980469 2.839844 11.304688 2.613281 L 11.367188 2.566406 C 11.59375 2.410156 11.851562 2.332031 12.109375 2.332031 C 12.539062 2.332031 12.964844 2.539062 13.234375 2.925781 L 17.328125 8.769531 C 18.390625 10.300781 19.0625 11.40625 19.101562 13.046875 C 19.101562 13 19.101562 12.953125 19.101562 12.90625 C 19.101562 11.1875 18.417969 10.0625 17.328125 8.488281 L 13.234375 2.644531 C 12.964844 2.257812 12.539062 2.050781 12.109375 2.050781 Z M 4.09375 6.539062 C 3.335938 6.539062 2.730469 7.128906 2.730469 7.863281 L 2.730469 7.941406 C 2.730469 7.976562 2.730469 8.011719 2.734375 8.042969 C 2.785156 7.355469 3.371094 6.820312 4.09375 6.820312 L 12.632812 6.820312 L 12.433594 6.539062 Z M 7.273438 9.546875 L 3.042969 14.589844 C 2.789062 14.890625 2.6875 15.261719 2.722656 15.617188 C 2.75 15.355469 2.855469 15.089844 3.042969 14.867188 L 7.480469 9.582031 C 7.488281 9.570312 7.496094 9.558594 7.503906 9.546875 Z M 7.273438 9.546875 "/>
<path style=" stroke:none;fill-rule:nonzero;fill:rgb(0%,0%,0%);fill-opacity:0.235294;" d="M 10.75 3.304688 C 10.726562 3.613281 10.804688 3.933594 11 4.210938 L 12.480469 6.320312 L 12.632812 6.320312 L 11 3.992188 C 10.851562 3.78125 10.769531 3.542969 10.75 3.304688 Z M 2.730469 7.792969 C 2.730469 7.816406 2.730469 7.839844 2.730469 7.863281 L 2.730469 7.941406 C 2.730469 8.675781 3.335938 9.269531 4.09375 9.269531 L 7.324219 9.269531 L 7.480469 9.082031 C 7.488281 9.074219 7.496094 9.0625 7.503906 9.050781 L 4.09375 9.050781 C 3.359375 9.050781 2.769531 8.496094 2.730469 7.792969 Z M 19.101562 12.796875 C 19.042969 16.273438 16.226562 19.054688 12.734375 19.054688 C 9.792969 19.054688 7.332031 17.082031 6.59375 14.382812 L 5.132812 16.125 C 4.648438 16.703125 3.804688 16.789062 3.242188 16.316406 L 3.179688 16.269531 C 2.902344 16.035156 2.746094 15.710938 2.71875 15.371094 C 2.6875 15.785156 2.84375 16.203125 3.179688 16.484375 L 3.242188 16.535156 C 3.804688 17.007812 4.648438 16.921875 5.132812 16.34375 L 6.59375 14.601562 C 7.332031 17.300781 9.792969 19.273438 12.734375 19.273438 C 16.261719 19.273438 19.101562 16.433594 19.101562 12.90625 C 19.101562 12.871094 19.101562 12.832031 19.101562 12.796875 Z M 19.101562 12.796875 "/>
<path style=" stroke:none;fill-rule:nonzero;fill:rgb(12.941177%,12.941177%,12.941177%);fill-opacity:1;" d="M 12.109375 1.988281 C 11.839844 1.988281 11.566406 2.066406 11.332031 2.234375 L 11.265625 2.277344 C 10.636719 2.71875 10.496094 3.601562 10.949219 4.246094 L 12.507812 6.472656 L 4.09375 6.472656 C 3.304688 6.472656 2.664062 7.09375 2.664062 7.863281 L 2.664062 7.941406 C 2.664062 8.710938 3.304688 9.332031 4.09375 9.332031 L 7.367188 9.332031 L 2.992188 14.546875 C 2.484375 15.152344 2.550781 16.039062 3.140625 16.535156 L 3.199219 16.585938 C 3.789062 17.078125 4.675781 16.988281 5.183594 16.382812 L 6.566406 14.734375 C 7.351562 17.398438 9.808594 19.335938 12.734375 19.335938 C 16.296875 19.335938 19.164062 16.46875 19.164062 12.90625 C 19.164062 11.171875 18.472656 10.027344 17.382812 8.453125 L 13.289062 2.605469 C 13.003906 2.203125 12.558594 1.984375 12.109375 1.988281 Z M 12.109375 2.117188 C 12.515625 2.113281 12.921875 2.3125 13.183594 2.679688 L 17.277344 8.527344 C 18.367188 10.097656 19.035156 11.203125 19.035156 12.90625 C 19.035156 16.398438 16.226562 19.207031 12.734375 19.207031 C 9.824219 19.207031 7.386719 17.257812 6.65625 14.585938 C 6.648438 14.5625 6.632812 14.542969 6.609375 14.539062 C 6.585938 14.535156 6.558594 14.542969 6.542969 14.558594 L 5.082031 16.300781 C 4.621094 16.855469 3.816406 16.933594 3.28125 16.484375 L 3.222656 16.4375 C 2.6875 15.988281 2.628906 15.183594 3.09375 14.628906 L 7.527344 9.34375 C 7.53125 9.339844 7.53125 9.339844 7.53125 9.335938 C 7.539062 9.328125 7.546875 9.316406 7.554688 9.304688 C 7.570312 9.285156 7.570312 9.257812 7.558594 9.238281 C 7.546875 9.214844 7.527344 9.203125 7.503906 9.203125 L 4.09375 9.203125 C 3.371094 9.203125 2.792969 8.640625 2.792969 7.941406 L 2.792969 7.863281 C 2.792969 7.164062 3.371094 6.601562 4.09375 6.601562 L 12.632812 6.601562 C 12.65625 6.601562 12.675781 6.589844 12.6875 6.570312 C 12.699219 6.546875 12.699219 6.523438 12.683594 6.503906 L 11.054688 4.171875 C 10.640625 3.582031 10.769531 2.785156 11.339844 2.382812 L 11.402344 2.339844 C 11.617188 2.1875 11.863281 2.117188 12.109375 2.117188 Z M 12.109375 2.117188 "/>
<path style=" stroke:none;fill-rule:nonzero;fill:rgb(100%,100%,100%);fill-opacity:0.392157;" d="M 12.734375 10.632812 C 11.472656 10.632812 10.460938 11.644531 10.460938 12.90625 C 10.460938 12.945312 10.460938 12.980469 10.464844 13.019531 C 10.523438 11.8125 11.511719 10.859375 12.734375 10.859375 C 13.957031 10.859375 14.945312 11.8125 15.003906 13.019531 C 15.007812 12.980469 15.007812 12.945312 15.007812 12.90625 C 15.007812 11.644531 13.992188 10.632812 12.734375 10.632812 Z M 12.734375 10.632812 "/>
<path style=" stroke:none;fill-rule:nonzero;fill:rgb(0%,0%,0%);fill-opacity:0.235294;" d="M 12.734375 15.179688 C 11.472656 15.179688 10.460938 14.164062 10.460938 12.90625 C 10.460938 12.867188 10.460938 12.832031 10.464844 12.792969 C 10.523438 14 11.511719 14.953125 12.734375 14.953125 C 13.957031 14.953125 14.945312 14 15.003906 12.792969 C 15.007812 12.832031 15.007812 12.867188 15.007812 12.90625 C 15.007812 14.164062 13.992188 15.179688 12.734375 15.179688 Z M 12.734375 15.179688 "/>
<path style=" stroke:none;fill-rule:nonzero;fill:rgb(12.941177%,12.941177%,12.941177%);fill-opacity:1;" d="M 12.734375 10.566406 C 11.441406 10.566406 10.394531 11.613281 10.394531 12.90625 C 10.394531 14.199219 11.441406 15.246094 12.734375 15.246094 C 14.027344 15.246094 15.074219 14.199219 15.074219 12.90625 C 15.074219 11.613281 14.027344 10.566406 12.734375 10.566406 Z M 12.734375 10.695312 C 13.960938 10.695312 14.945312 11.679688 14.945312 12.90625 C 14.945312 14.132812 13.960938 15.117188 12.734375 15.117188 C 11.507812 15.117188 10.523438 14.132812 10.523438 12.90625 C 10.523438 11.679688 11.507812 10.695312 12.734375 10.695312 Z M 12.734375 10.695312 "/>
</g>
</svg>

<svg xmlns="http://www.w3.org/2000/svg" width="22pt" height="22pt" viewBox="0 0 22 22"><defs><linearGradient id="a" gradientUnits="userSpaceOnUse" x1="254" y1="233.5" x2="254" y2="254.667" gradientTransform="matrix(.04297 0 0 .04297 .227 9.24)"><stop offset="0" stop-opacity=".275"/><stop offset="1" stop-opacity="0"/></linearGradient><radialGradient id="b" gradientUnits="userSpaceOnUse" cx="450.909" cy="189.579" fx="450.909" fy="189.579" r="21.167" gradientTransform="matrix(0 -.05372 -.09669 0 31.52 43.722)"><stop offset="0" stop-opacity=".314"/><stop offset=".222" stop-opacity=".275"/><stop offset="1" stop-opacity="0"/></radialGradient><radialGradient id="c" gradientUnits="userSpaceOnUse" cx="450.909" cy="189.579" fx="450.909" fy="189.579" r="21.167" gradientTransform="matrix(0 .05372 .09669 0 -6.05 -5.175)"><stop offset="0" stop-opacity=".314"/><stop offset=".222" stop-opacity=".275"/><stop offset="1" stop-opacity="0"/></radialGradient><radialGradient id="d" gradientUnits="userSpaceOnUse" cx="450.909" cy="189.579" fx="450.909" fy="189.579" r="21.167" gradientTransform="matrix(0 -.05372 .09669 0 -6.05 43.722)"><stop offset="0" stop-opacity=".314"/><stop offset=".222" stop-opacity=".275"/><stop offset="1" stop-opacity="0"/></radialGradient><radialGradient id="e" gradientUnits="userSpaceOnUse" cx="450.909" cy="189.579" fx="450.909" fy="189.579" r="21.167" gradientTransform="matrix(0 .05372 -.09669 0 31.52 -5.175)"><stop offset="0" stop-opacity=".314"/><stop offset=".222" stop-opacity=".275"/><stop offset="1" stop-opacity="0"/></radialGradient><linearGradient id="f" gradientUnits="userSpaceOnUse" x1="1040" y1="1695.118" x2="1040" y2="175.118" gradientTransform="matrix(.01137 0 0 .01137 .91 0)"><stop offset="0" stop-color="#ff7043"/><stop offset="1" stop-color="#ff8a65"/></linearGradient><linearGradient id="g" gradientUnits="userSpaceOnUse" x1="275.167" y1="-9.917" x2="275.167" y2="180.583" gradientTransform="translate(21.167)"><stop offset="0" stop-color="#bdbdbd"/><stop offset="1" stop-color="#eee"/></linearGradient><linearGradient id="h" gradientUnits="userSpaceOnUse" x1="275.167" y1="-9.917" x2="275.167" y2="180.583" gradientTransform="matrix(.02387 0 0 .02387 6.165 10.869)"><stop offset="0" stop-color="#42a5f5"/><stop offset="1" stop-color="#2196f3"/></linearGradient></defs><path d="M12.05 18.934h1.368v1.25h-1.367zm0 0" fill="url(#a)"/><path d="M13.418 19.273h1.816v-.91h-1.816zm0 0" fill="url(#b)"/><path d="M12.05 19.273h-1.816v.91h1.817zm0 0" fill="url(#c)"/><path d="M12.05 19.273h-1.816v-.91h1.817zm0 0" fill="url(#d)"/><path d="M13.418 19.273h1.816v.91h-1.816zm0 0" fill="url(#e)"/><path d="M12.11 2.05c-.258 0-.516.079-.743.235l-.062.047c-.602.422-.739 1.258-.305 1.879l1.633 2.328h-8.54c-.757 0-1.363.59-1.363 1.324v.078c0 .735.606 1.329 1.364 1.329h3.41a.217.217 0 0 0-.024.03l-4.437 5.29c-.484.578-.426 1.422.137 1.894l.062.051c.563.473 1.406.387 1.89-.191l1.462-1.742a6.351 6.351 0 0 0 6.14 4.671 6.353 6.353 0 0 0 6.368-6.367c0-1.719-.684-2.844-1.774-4.418l-4.094-5.843a1.372 1.372 0 0 0-1.125-.594zm0 0" fill="url(#f)"/><path d="M296.335-9.929c52.632 0 95.264 42.633 95.264 95.264 0 52.631-42.632 95.264-95.264 95.264-52.631 0-95.263-42.633-95.263-95.264 0-52.631 42.632-95.264 95.263-95.264zm0 0" transform="matrix(.04297 0 0 .04297 0 9.24)" fill="url(#g)" stroke-width="3" stroke-linecap="square" stroke-linejoin="round" stroke="#212121"/><path d="M12.734 10.633a2.273 2.273 0 1 1 .001 4.546 2.273 2.273 0 0 1 0-4.546zm0 0" fill="url(#h)"/><path d="M12.11 2.05c-.258 0-.516.079-.743.235l-.062.047a1.315 1.315 0 0 0-.551 1.223c.039-.371.226-.715.55-.942l.063-.047c.227-.156.485-.234.742-.234.43 0 .856.207 1.125.594l4.094 5.844c1.063 1.53 1.735 2.636 1.774 4.277v-.14c0-1.72-.684-2.845-1.774-4.419l-4.094-5.843a1.372 1.372 0 0 0-1.125-.594zM4.093 6.54c-.758 0-1.364.589-1.364 1.323v.078c0 .036 0 .07.004.102.051-.688.637-1.223 1.36-1.223h8.539l-.2-.28zm3.18 3.007L3.042 14.59c-.254.3-.356.672-.32 1.027.027-.262.132-.527.32-.75L7.48 9.582l.024-.035zm0 0" fill="#fff" fill-opacity=".392"/><path d="M10.75 3.305c-.023.308.055.629.25.906l1.48 2.11h.153L11 3.991c-.148-.21-.23-.449-.25-.687zM2.73 7.793V7.941c0 .735.606 1.329 1.364 1.329h3.23l.156-.188a.217.217 0 0 0 .024-.031h-3.41c-.735 0-1.324-.555-1.364-1.258zm16.372 5.004a6.353 6.353 0 0 1-6.368 6.258 6.351 6.351 0 0 1-6.14-4.672l-1.461 1.742c-.485.578-1.328.664-1.89.191l-.063-.046a1.307 1.307 0 0 1-.461-.899c-.031.414.125.832.46 1.113l.063.051c.563.473 1.406.387 1.89-.191l1.462-1.742a6.351 6.351 0 0 0 6.14 4.671 6.353 6.353 0 0 0 6.368-6.367v-.11zm0 0" fill-opacity=".235"/><path d="M12.11 1.988c-.27 0-.544.078-.778.246l-.066.043c-.63.442-.77 1.325-.317 1.97l1.559 2.226H4.094c-.79 0-1.43.62-1.43 1.39v.078c0 .77.64 1.391 1.43 1.391h3.273l-4.375 5.215c-.508.605-.441 1.492.149 1.988l.058.05c.59.493 1.477.403 1.985-.202l1.382-1.649a6.42 6.42 0 0 0 6.168 4.602 6.415 6.415 0 0 0 6.43-6.43c0-1.734-.691-2.879-1.781-4.453l-4.094-5.848a1.436 1.436 0 0 0-1.18-.617zm0 .13c.406-.005.812.195 1.074.562l4.093 5.847c1.09 1.57 1.758 2.676 1.758 4.38 0 3.491-2.808 6.3-6.3 6.3a6.284 6.284 0 0 1-6.079-4.621c-.008-.024-.023-.043-.047-.047a.08.08 0 0 0-.066.02L5.082 16.3c-.46.554-1.266.633-1.8.183l-.06-.047c-.534-.449-.593-1.253-.128-1.808l4.433-5.285c.004-.004.004-.004.004-.008.008-.008.016-.02.024-.031a.06.06 0 0 0 .004-.067.059.059 0 0 0-.055-.035h-3.41c-.723 0-1.301-.562-1.301-1.262v-.078c0-.699.578-1.261 1.3-1.261h8.54a.062.062 0 0 0 .055-.032c.011-.023.011-.047-.004-.066l-1.63-2.332c-.413-.59-.284-1.387.286-1.79l.062-.042c.215-.152.461-.223.707-.223zm0 0" fill="#212121"/><path d="M12.734 10.633a2.266 2.266 0 0 0-2.27 2.387 2.266 2.266 0 0 1 2.27-2.16c1.223 0 2.211.953 2.27 2.16.004-.04.004-.075.004-.114a2.268 2.268 0 0 0-2.274-2.273zm0 0" fill="#fff" fill-opacity=".392"/><path d="M12.734 15.18a2.268 2.268 0 0 1-2.273-2.274c0-.039 0-.074.004-.113a2.266 2.266 0 0 0 2.27 2.16c1.222 0 2.21-.953 2.269-2.16a2.27 2.27 0 0 1-2.27 2.387zm0 0" fill-opacity=".235"/><path d="M12.734 10.566a2.339 2.339 0 1 0 0 4.68 2.339 2.339 0 1 0 0-4.68zm0 .13c1.227 0 2.211.984 2.211 2.21 0 1.227-.984 2.211-2.21 2.211a2.204 2.204 0 0 1-2.212-2.21c0-1.227.985-2.212 2.211-2.212zm0 0" fill="#212121"/></svg>
